X: 83
M:6/8
L:1/8
K:G
v(D2.G) (G2.A) | (B2.d) cAG | (F2.D) DED | F3  FED |
|:v(g2.d) def | (g2.a) bag | (f2.d) d"4"ed | (f2.g) afd |
(g2.d) def | (g2.a) bag | fed cBA | G3  G,2 z :|


